packages/asc-assets/svg/Quote.svg

<?xml version="1.0" encoding="UTF-8"?>
<svg width="32px" height="32px" viewBox="0 0 32 32" version="1.1" xmlns="http://www.w3.org/2000/svg" xmlns:xlink="http://www.w3.org/1999/xlink">
    <!-- Generator: Sketch 53.1 (72631) - https://sketchapp.com -->
    <title>Icon/32/Quote</title>
    <desc>Created with Sketch.</desc>
    <g id="Icon/32/Quote" stroke="none" stroke-width="1" fill="none" fill-rule="evenodd">
        <path d="M0,13.0965517 L0,11.0689655 L5.07354167,6.03041379 L5.053125,6 L8.16666667,6 L8.16666667,13.0965517 L14,13.0965517 L14,27 L0,27 L0,13.0965517 Z M18,13.0965517 L18,11.0689655 L23.08375,6.03041379 L23.053125,6 L26.1666667,6 L26.1666667,13.0965517 L32,13.0965517 L32,27 L18,27 L18,13.0965517 Z" id="Combined-Shape" fill="#000000"/>
    </g>
</svg>

<svg viewBox="0 0 32 32"><path d="M0 13.1v-2.03l5.07-5.04L5.05 6h3.12v7.1H14V27H0V13.1zm18 0v-2.03l5.08-5.04-.03-.03h3.12v7.1H32V27H18V13.1z"></path></svg>
